static/logos/posthog-glyph-color.svg

<svg width="50" height="29" viewBox="0 0 50 29" fill="none" xmlns="http://www.w3.org/2000/svg">
<g clip-path="url(#clip0_1_1557)">
<path d="M11.3446 15.8392C10.9607 16.607 9.86507 16.607 9.48118 15.8392L8.5631 14.003C8.41647 13.7098 8.41647 13.3646 8.5631 13.0714L9.48118 11.2351C9.86507 10.4674 10.9607 10.4674 11.3446 11.2351L12.2627 13.0714C12.4092 13.3646 12.4092 13.7098 12.2627 14.003L11.3446 15.8392Z" fill="#1D4AFF"/>
<path d="M11.3446 26.2527C10.9607 27.0205 9.86507 27.0205 9.48118 26.2527L8.5631 24.4166C8.41647 24.1233 8.41647 23.7781 8.5631 23.4849L9.48118 21.6488C9.86507 20.8809 10.9607 20.8809 11.3446 21.6488L12.2627 23.4849C12.4092 23.7781 12.4092 24.1233 12.2627 24.4166L11.3446 26.2527Z" fill="#1D4AFF"/>
<path d="M0 22.3001C0 21.3721 1.12202 20.9073 1.77824 21.5635L6.55259 26.3379C7.20881 26.9942 6.74405 28.1161 5.81603 28.1161H1.04167C0.46637 28.1161 0 27.6498 0 27.0745V22.3001ZM0 17.2711C0 17.5474 0.109747 17.8124 0.305097 18.0077L10.1084 27.811C10.3038 28.0064 10.5687 28.1161 10.845 28.1161H16.2296C17.1576 28.1161 17.6224 26.9942 16.9661 26.3379L1.77824 11.15C1.12202 10.4938 0 10.9585 0 11.8866V17.2711ZM0 6.85759C0 7.13385 0.109747 7.39881 0.305097 7.59416L20.522 27.811C20.7173 28.0064 20.9823 28.1161 21.2585 28.1161H26.6431C27.5711 28.1161 28.0359 26.9942 27.3797 26.3379L1.77824 0.736472C1.12203 0.0802637 0 0.545014 0 1.47303V6.85759ZM10.4135 6.85759C10.4135 7.13385 10.5233 7.39881 10.7186 7.59416L29.4624 26.3379C30.1186 26.9942 31.2406 26.5294 31.2406 25.6014V20.2168C31.2406 19.9405 31.1308 19.6755 30.9355 19.4802L12.1918 0.736461C11.5355 0.0802532 10.4135 0.545014 10.4135 1.47303V6.85759ZM22.6053 0.736472C21.9491 0.0802532 20.8271 0.545014 20.8271 1.47303V6.85759C20.8271 7.13385 20.9369 7.39881 21.1322 7.59416L29.4624 15.9244C30.1186 16.5806 31.2406 16.1158 31.2406 15.1878V9.80323C31.2406 9.52698 31.1308 9.26198 30.9355 9.06667L22.6053 0.736472Z" fill="#F9BD2B"/>
<path d="M44.2941 22.4281L34.4892 12.6231C33.8329 11.9669 32.7109 12.4317 32.7109 13.3597V27.0747C32.7109 27.65 33.1773 28.1164 33.7526 28.1164H48.9407C49.516 28.1164 49.9824 27.65 49.9824 27.0747V25.8257C49.9824 25.2504 49.5141 24.791 48.9435 24.7168C47.1928 24.4887 45.5552 23.6892 44.2941 22.4281ZM37.7094 24.7841C36.7897 24.7841 36.0432 24.0376 36.0432 23.1179C36.0432 22.1981 36.7897 21.4517 37.7094 21.4517C38.6292 21.4517 39.3756 22.1981 39.3756 23.1179C39.3756 24.0376 38.6292 24.7841 37.7094 24.7841Z" fill="black"/>
<path d="M0 27.0745C0 27.6498 0.46637 28.1161 1.04167 28.1161H5.81603C6.74405 28.1161 7.20881 26.9942 6.55259 26.3379L1.77824 21.5635C1.12202 20.9073 0 21.3721 0 22.3001V27.0745Z" fill="#1D4AFF"/>
<path d="M10.4135 9.37177L1.77824 0.736472C1.12203 0.0802639 0 0.545015 0 1.47303V6.85759C0 7.13385 0.109747 7.39881 0.305097 7.59416L10.4135 17.7026V9.37177Z" fill="#1D4AFF"/>
<path d="M1.77824 11.15C1.12202 10.4938 0 10.9585 0 11.8866V17.2711C0 17.5474 0.109747 17.8124 0.305097 18.0077L10.4135 28.1163V19.7854L1.77824 11.15Z" fill="#1D4AFF"/>
<path d="M20.8277 9.80323C20.8277 9.52698 20.718 9.26198 20.5226 9.06667L12.1923 0.736461C11.536 0.0802533 10.4141 0.545014 10.4141 1.47303V6.85759C10.4141 7.13385 10.5239 7.39881 10.7192 7.59416L20.8277 17.7026V9.80323Z" fill="#F54E00"/>
<path d="M10.4141 28.1162L16.2301 28.1161C17.1581 28.1161 17.6229 26.9942 16.9667 26.3379L10.4141 19.7854V28.1162Z" fill="#F54E00"/>
<path d="M10.4141 9.37177L10.4141 17.2714C10.4141 17.5476 10.524 17.8125 10.7193 18.0079L20.8277 28.1164V20.217C20.8277 19.9407 20.718 19.6757 20.5226 19.4804L10.4141 9.37177Z" fill="#F54E00"/>
</g>
<defs>
<clipPath id="clip0_1_1557">
<rect width="50" height="28.125" fill="white"/>
</clipPath>
</defs>
</svg>

<svg xmlns="http://www.w3.org/2000/svg" width="110.345" height="64" fill="none" viewBox="0 0 50 29"><g clip-path="url(#a)"><path fill="#1D4AFF" d="M11.345 15.84a1.042 1.042 0 0 1-1.864 0l-.918-1.837a1.041 1.041 0 0 1 0-.932l.918-1.836a1.042 1.042 0 0 1 1.864 0l.918 1.836c.146.294.146.639 0 .932l-.918 1.836ZM11.345 26.253a1.042 1.042 0 0 1-1.864 0l-.918-1.836a1.042 1.042 0 0 1 0-.932l.918-1.836a1.042 1.042 0 0 1 1.864 0l.918 1.836c.146.293.146.638 0 .932l-.918 1.836Z"/><path fill="#F9BD2B" d="M0 22.3c0-.928 1.122-1.393 1.778-.736l4.775 4.774c.656.656.191 1.778-.737 1.778H1.042A1.042 1.042 0 0 1 0 27.075V22.3Zm0-5.029c0 .276.11.541.305.737l9.803 9.803c.196.195.46.305.737.305h5.385c.928 0 1.392-1.122.736-1.778L1.778 11.15C1.122 10.494 0 10.959 0 11.887v5.384ZM0 6.858c0 .276.11.54.305.736l20.217 20.217c.195.195.46.305.737.305h5.384c.928 0 1.393-1.122.737-1.778L1.778.736C1.122.08 0 .545 0 1.473v5.385Zm10.414 0c0 .276.11.54.305.736l18.743 18.744c.657.656 1.779.191 1.779-.737v-5.384c0-.276-.11-.541-.305-.737L12.192.736c-.656-.656-1.778-.191-1.778.737v5.385ZM22.605.736c-.656-.656-1.778-.191-1.778.737v5.385c0 .276.11.54.305.736l8.33 8.33c.657.657 1.779.192 1.779-.736V9.803c0-.276-.11-.541-.305-.736l-8.33-8.33Z"/><path fill="#000" d="m44.294 22.428-9.805-9.805c-.656-.656-1.778-.191-1.778.737v13.715c0 .575.466 1.041 1.042 1.041H48.94c.575 0 1.041-.466 1.041-1.041v-1.25c0-.575-.468-1.034-1.038-1.108a8.046 8.046 0 0 1-4.65-2.289Zm-6.585 2.356a1.667 1.667 0 1 1 .002-3.334 1.667 1.667 0 0 1-.002 3.334Z"/><path fill="#1D4AFF" d="M0 27.075c0 .575.466 1.041 1.042 1.041h4.774c.928 0 1.393-1.122.737-1.778l-4.775-4.774C1.122 20.907 0 21.372 0 22.3v4.774ZM10.414 9.372 1.778.736C1.122.08 0 .545 0 1.473v5.385c0 .276.11.54.305.736l10.109 10.109V9.372ZM1.778 11.15C1.122 10.494 0 10.959 0 11.887v5.384c0 .276.11.541.305.737l10.109 10.108v-8.33L1.778 11.15Z"/><path fill="#F54E00" d="M20.828 9.803c0-.276-.11-.541-.305-.736l-8.33-8.33c-.657-.657-1.779-.192-1.779.736v5.385c0 .276.11.54.305.736l10.109 10.109v-7.9ZM10.414 28.116h5.816c.928 0 1.393-1.122.737-1.778l-6.553-6.553v8.331ZM10.414 9.372v7.9c0 .276.11.54.305.736l10.109 10.108v-7.899c0-.276-.11-.541-.305-.737L10.414 9.372Z"/></g><defs><clipPath id="a"><path fill="#fff" d="M0 0h50v28.125H0z"/></clipPath></defs></svg>
